src/asset/image/person.svg

<svg width="20" height="22" viewBox="0 0 20 22" fill="none" xmlns="http://www.w3.org/2000/svg"><path fill-rule="evenodd" clip-rule="evenodd" d="M17.677 16.318L13 14.647v-2.305c1.433-1.174 2.375-3.13 2.375-5.342 0-3.584-2.467-6.5-5.5-6.5s-5.5 2.916-5.5 6.5c0 2.338 1.053 4.385 2.625 5.531v2.117l-4.678 1.671A3.506 3.506 0 000 19.614V21.5a.5.5 0 00.5.5h19a.5.5 0 00.5-.5v-1.886a3.51 3.51 0 00-2.323-3.296zM9.875 1.5c2.204 0 4.039 1.947 4.423 4.507-.007.001-.011 0-.018.002-1.451.281-2.352-.192-3.206-1.687-.09-.159-.225-.25-.444-.252a.498.498 0 00-.434.269C9.736 5.224 8.183 6 6.875 6c-.509 0-.946-.084-1.376-.26.468-2.427 2.25-4.24 4.376-4.24zM5.375 7c0-.081.007-.16.01-.24.469.157.954.24 1.49.24 1.374 0 2.881-.653 3.735-1.55.797 1.109 1.737 1.635 2.931 1.635.263 0 .544-.034.834-.085 0 3.033-2.019 5.5-4.5 5.5s-4.5-2.467-4.5-5.5zM19 21H1v-1.386c0-1.054.667-2 1.659-2.354l5.009-1.789A.5.5 0 008 15v-1.897a4.728 4.728 0 001.875.397c.753 0 1.471-.181 2.125-.506V15a.5.5 0 00.332.471l5.008 1.789A2.506 2.506 0 0119 19.614V21z" fill="#3E3832"/></svg>

<svg width="20" height="22" viewBox="0 0 20 22" fill="none" xmlns="http://www.w3.org/2000/svg">
<path fill-rule="evenodd" clip-rule="evenodd" d="M17.677 16.318L13 14.647V12.342C14.433 11.168 15.375 9.212 15.375 7C15.375 3.416 12.908 0.5 9.875 0.5C6.842 0.5 4.375 3.416 4.375 7C4.375 9.338 5.428 11.385 7 12.531V14.648L2.322 16.319C0.933 16.815 0 18.139 0 19.614V21.5C0 21.776 0.224 22 0.5 22H19.5C19.776 22 20 21.776 20 21.5V19.614C20 18.14 19.066 16.815 17.677 16.318ZM9.875 1.5C12.079 1.5 13.914 3.447 14.298 6.007C14.291 6.008 14.287 6.007 14.28 6.009C12.829 6.29 11.928 5.817 11.074 4.322C10.984 4.163 10.849 4.072 10.63 4.07C10.447 4.073 10.281 4.176 10.196 4.339C9.736 5.224 8.183 6 6.875 6C6.366 6 5.929 5.916 5.499 5.74C5.967 3.313 7.749 1.5 9.875 1.5ZM5.375 7C5.375 6.919 5.382 6.84 5.385 6.76C5.854 6.917 6.339 7 6.875 7C8.249 7 9.756 6.347 10.61 5.45C11.407 6.559 12.347 7.085 13.541 7.085C13.804 7.085 14.085 7.051 14.375 7C14.375 10.033 12.356 12.5 9.875 12.5C7.394 12.5 5.375 10.033 5.375 7ZM19 21H1V19.614C1 18.56 1.667 17.614 2.659 17.26L7.668 15.471C7.867 15.4 8 15.211 8 15V13.103C8.586 13.355 9.216 13.5 9.875 13.5C10.628 13.5 11.346 13.319 12 12.994V15C12 15.211 12.133 15.4 12.332 15.471L17.34 17.26C18.333 17.615 19 18.561 19 19.614V21Z" fill="#3E3832"/>
</svg>
